!!!!SEGMENT: pl-kk--kk-i-6--022_anonim--stella-caeli-extirpavit.krn
!!!cenid: 16xx:977
!!!COM: Anonim
!!!COM-rism: pe30004985
!!!CDT:
!!!CNT:
!!!OTL: Stella caeli extirpavit
!!!PDT:
!!!AGN: Sacred
!!!SMS-siglum: PL-Kk
!!!SMS-shelfmark: Kk.I.6
!!!NIFC-rismID: 1001135864
!!!URL-scan: http://repozytorium.nifc.pl/skany/pl-kk-nut--i-6
!!!ONB-nifc: UWAGA: C (skan 0016, s. 28-29), T (skan 0119, s. 42-43), B (skan 0230, s. 40-41) Następny utwór: Grates nunc omnes
!!!SMS-variant:
!!!SMS-altvar:
**kern	**fba	**text	**text	**text	**kern	**text	**text	**text	**kern	**text	**text	**text
*part3	*	*part3	*part3	*part3	*part2	*part2	*part2	*part2	*part1	*part1	*part1	*part1
*staff3	*	*staff3	*staff3	*staff3	*staff2	*staff2	*staff2	*staff2	*staff1	*staff1	*staff1	*staff1
*	*	*verse 1	*verse 2	*verse 3	*	*verse 1	*verse 2	*verse 3	*	*verse 1	*verse 2	*verse 3
*I"Baſsus.	*	*	*	*	*I"Tenor.	*	*	*	*I"Cantus.	*	*	*
*I'B	*	*	*	*	*I'T	*	*	*	*I'S	*	*	*
*clefF4	*	*	*	*	*clefC4	*	*	*	*clefC4	*	*	*
*k[b-]	*	*	*	*	*k[b-]	*	*	*	*k[b-]	*	*	*
*M3/1	*	*	*	*	*M3/1	*	*	*	*M3/1	*	*	*
=1-	=1-	=1-	=1-	=1-	=1-	=1-	=1-	=1-	=1-	=1-	=1-	=1-
0F	.	Stel-	Ip-	.	0c	Stel-	Ip-	.	0A	Stel-	Ip-	.
1D	.	-la	-sa	.	1d	-la	-sa	.	1Bn	-la	-sa	.
=2-	=2-	=2-	=2-	=2-	=2-	=2-	=2-	=2-	=2-	=2-	=2-	=2-
0C	.	Cae-	Stel-	.	0G	Cae-	Stel-	.	0c	Cae-	Stel-	.
1C	.	-li	-la	.	1G	-li	-la	.	1c	-li	-la	.
=3-	=3-	=3-	=3-	=3-	=3-	=3-	=3-	=3-	=3-	=3-	=3-	=3-
!	!	!	!	!	!LO:TX:a:t=P:problem:# above	!	!	!	!	!	!	!
0G	.	ex-	nunc	.	0B#X	ex-	nunc	.	0d	ex-	Nunc	.
1GG	.	-ſtir-	dig-	.	1G	-ſtir-	dig-	.	1d	-ſtir-	dig-	.
=4-	=4-	=4-	=4-	=4-	=4-	=4-	=4-	=4-	=4-	=4-	=4-	=4-
0C	.	-pa-	-ne-	.	0G	-pa-	-ne-	.	0c	-pa-	-ne-	.
1C	.	-vit	-tur	.	1G	-vit	-tur	.	1c	-uit	-tur	.
=5-	=5-	=5-	=5-	=5-	=5-	=5-	=5-	=5-	=5-	=5-	=5-	=5-
0F	.	quae	Si-	.	0A	quae	Si-	.	0A	quae	Si-	.
1E	.	la-	-de-	.	1c	la-	-de-	.	1G	la-	-de-	.
=6-	=6-	=6-	=6-	=6-	=6-	=6-	=6-	=6-	=6-	=6-	=6-	=6-
0F	.	-cta-	-ra	.	0c	-cta-	-ra	.	0A	-cta-	-ra	.
1A	.	-vit	Com-	.	1c	-vit	Com-	.	1c	-vit	Com-	.
=7-	=7-	=7-	=7-	=7-	=7-	=7-	=7-	=7-	=7-	=7-	=7-	=7-
0G	.	D(o-	-pes-	.	0d	D(o-	-pes-	.	0B-y	D(o-	-pes-	.
1G	.	-mi)-	-ce-	.	1d	-mi)-	-ce-	.	1B-	-mi)-	-ce-	.
=8-	=8-	=8-	=8-	=8-	=8-	=8-	=8-	=8-	=8-	=8-	=8-	=8-
!	!	!	!	!	!LO:TX:a:t=P:problem:znak podwójnej repetycji	!	!	!	!	!	!	!
0.C;;	.	-num	-re	.	0.c;;	-num	-re	.	0.c;;	-num	-re	.
!LO:LB:g=original	!	!	!	!	!LO:LB:g=original	!	!	!	!LO:LB:g=original	!	!	!
=9-	=9-	=9-	=9-	=9-	=9-	=9-	=9-	=9-	=9-	=9-	=9-	=9-
*M3/1	*	*	*	*	*M3/1	*	*	*	*M3/1	*	*	*
0F	.	Glo-	Me-	Au-	0c	Glo-	Me-	Au-	0A	Glo-	Me-	Au-
!LO:TX:a:t=x	!	!	!	!	!	!	!	!	!	!	!	!
1D	.	-ri-	-di-	-di	1d	-ri-	-di-	-di	1B#X	-ri-	-di-	-di
=10-	=10-	=10-	=10-	=10-	=10-	=10-	=10-	=10-	=10-	=10-	=10-	=10-
0C	.	-o-	-ci-	nos	0G	-o-	-ci-	nos	0c	-o-	-ci-	nos
!LO:TX:t=P:problem:kreska pseudotaktowa	!	!	!	!	!	!	!	!	!	!	!	!
1C	.	-sa	-na	Nam	1c	-sa	-na	nam	1c	-sa	-na	nam
=11-	=11-	=11-	=11-	=11-	=11-	=11-	=11-	=11-	=11-	=11-	=11-	=11-
0G	.	Stel-	Chris-	te	0c	Stel-	Chris-	te	0d	Stel-	Chris-	te
1G	.	-la	-ti-	fi-	1B#X	-la	-ti-	fi-	1d	-la	-ti-	fi-
=12-	=12-	=12-	=12-	=12-	=12-	=12-	=12-	=12-	=12-	=12-	=12-	=12-
0C	.	Ma-	-a-	-li-	0c	Ma-	-a-	-li-	0c	Ma-	-a-	-li-
!LO:TX:t=P:problem:kreska pseudotaktowa	!	!	!	!	!	!	!	!	!	!	!	!
1C	.	-ris	-na	-us	1G	-ris	-na	-us	1c	-ris	-na	-us
=13-	=13-	=13-	=13-	=13-	=13-	=13-	=13-	=13-	=13-	=13-	=13-	=13-
0F	.	Sum-	Sa-	ni-	0A	Sum-	Sa-	ni-	0A	Sum-	ſa-	Ni-
1E	.	-mis	-nos	-hil	1c	-mis	-nos	-hil	1G	-mis	-nas	-hil
=14-	=14-	=14-	=14-	=14-	=14-	=14-	=14-	=14-	=14-	=14-	=14-	=14-
0F	.	dig-	ſer-	ne-	0c	dig-	Ser-	ne-	0A	dig-	ſer-	ne-
!LO:TX:t=P:problem:kreska pseudotaktowa	!	!	!	!	!	!	!	!	!	!	!	!
1A	.	-na	-ua	-gans	1A	-na	-ua,	-gans	1c	-na	-ua,	-gans
=15-	=15-	=15-	=15-	=15-	=15-	=15-	=15-	=15-	=15-	=15-	=15-	=15-
0G	.	Lau-	ae-	ho-	0d	lau-	ae-	ho-	0c	Lau-	ae-	ho-
1G	.	-di-	-gros	-no-	1d	-di-	-gros	-no-	1B#X	-di-	-gros	-no-
=16-	=16-	=16-	=16-	=16-	=16-	=16-	=16-	=16-	=16-	=16-	=16-	=16-
*	*	*	*^	*	*	*	*^	*	*	*	*	*
!LO:TX:t=P:problem:kreska pseudotaktowa	!	!	!	!	!	!	!	!	!	!	!LO:TX:a:t=P:problem:znak podwójnej repetycji	!	!	!
0.C	.	-bus	-sana	[[Nos]]	-rat	0.c	-bus	-sana	[[Nos]]	-rat	0.c	-bus	[[no]]sana	-rat
*	*	*	*	*	*	*	*	*v	*v	*	*	*	*	*
*	*	*	*v	*v	*	*	*	*	*	*	*	*	*
!LO:PB:g=original	!	!	!	!	!LO:PB:g=original	!	!	!	!LO:PB:g=original	!	!	!
=17-	=17-	=17-	=17-	=17-	=17-	=17-	=17-	=17-	=17-	=17-	=17-	=17-
0C	.	Mor-	Quo-	.	0c	Mor-	Quo-	.	0G	Mor-	Quo-	.
1AA	.	-tis	-rum	.	1c	-tis	-rum	.	1A	-tis	-rum	.
=18-	=18-	=18-	=18-	=18-	=18-	=18-	=18-	=18-	=18-	=18-	=18-	=18-
0GG	.	pes-	bel-	.	0B-y	pes-	bel-	.	0B-y	peſ-	bel-	.
1GG	.	-tem	-la	.	1B-	-tem	-la	.	1B-	-tem	-la	.
=19-	=19-	=19-	=19-	=19-	=19-	=19-	=19-	=19-	=19-	=19-	=19-	=19-
0AA	.	quam	ple-	.	0A	quam	ple-	.	0c	quam	ple-	.
1FF	.	plan-	-bem	.	1F	plan-	-bem	.	1A	plan-	-bem	.
=20-	=20-	=20-	=20-	=20-	=20-	=20-	=20-	=20-	=20-	=20-	=20-	=20-
0C	.	-ta-	cae-	.	0c	-ta-	cae-	.	0G	-ta-	Cae-	.
!	!	!	!	!	!	!	!	!	!LO:TX:a:t=P:problem:oddech jako rozdzielacz słów	!	!	!
1C	.	-vit	-dunt	.	1c	-vit	-dunt	.	1G,<	-vit	-dunt	.
=21-	=21-	=21-	=21-	=21-	=21-	=21-	=21-	=21-	=21-	=21-	=21-	=21-
0F	.	pri-	di-	.	0c	pri-	di-	.	0A	pri-	di-	.
1C	.	-mus	-ro	.	1c	-mus	-ro	.	1c	-mus	-ro	.
=22-	=22-	=22-	=22-	=22-	=22-	=22-	=22-	=22-	=22-	=22-	=22-	=22-
0D	.	pa-	mor-	.	0d	pa-	Mor-	.	0B-	pa-	mor-	.
1AA	.	-rens	-tis	.	1A	-rens	-tis	.	1A	-rens	-tis	.
=23-	=23-	=23-	=23-	=23-	=23-	=23-	=23-	=23-	=23-	=23-	=23-	=23-
0GG	.	ho-	Vl-	.	0c	ho-	Vl-	.	0G	ho-	Vl-	.
1C	.	-mi-	-ce-	.	1c	-mi-	-ce-	.	1G	-mi-	-ce-	.
=24-	=24-	=24-	=24-	=24-	=24-	=24-	=24-	=24-	=24-	=24-	=24-	=24-
!LO:TX:a:t=P:problem:dopisek na końcu pięciolinii "Est vitio sum"	!	!	!	!	!LO:TX:a:t=P:problem:dopisek na końcu pięciolinii "Berlin multy vitiorum" ?	!	!	!	!LO:TX:a:t=P:problem:znak podwójnej repetycji	!	!	!
!LO:TX:a:t=P:problem:znak podwójnej repetycji	!	!	!	!	!	!	!	!	!	!	!	!
0.FFl;;	.	-num	-re.	.	0.c;;	-num	-re	.	0.Al;;	-num	-re	.
!	!	!	!	!	!LO:LB:g=original	!	!	!	!	!	!	!
=25-	=25-	=25-	=25-	=25-	=25-	=25-	=25-	=25-	=25-	=25-	=25-	=25-
0C	.	Nos	Quod	Sal-	0c	Nos	Quod	Sal-	0G	Nos	Quod	Sal-
!LO:TX:t=P:problem:kreska pseudotaktowa	!	!	!	!	!	!	!	!	!	!	!	!
1AA	.	a	non	-ua	1c	à	non	-ua	1A	a	non	-ua
=26-	=26-	=26-	=26-	=26-	=26-	=26-	=26-	=26-	=26-	=26-	=26-	=26-
0GG	.	pes-	Va-	nos	(1B-	pes-	Va-	nos	0B-X	pes-	Va-	nos
.	-	.	.	.	1d)	.	.	.	.	.	.	.
!LO:TX:t=P:problem:kreska pseudotaktowa	!	!	!	!	!	!	!	!	!	!	!	!
1GG	.	-te	-let	Je-	1B-	-te	-let	Je-	1B-	-te	-let	Je-
=27-	=27-	=27-	=27-	=27-	=27-	=27-	=27-	=27-	=27-	=27-	=27-	=27-
1.FF	.	tu-	Vis	-su	0A	tu-	Vis	-su	0c	tu-	Vis	-su
2GG/	.	.	.	.	.	.	.	.	.	.	.	.
2AA/	6	-e	hu-	pro-	1F	-e-	hu-	pro	1A	-e-	hu-	pro
2BB-/	5	.	.	.	.	.	.	.	.	.	.	.
=28-	=28-	=28-	=28-	=28-	=28-	=28-	=28-	=28-	=28-	=28-	=28-	=28-
0C	.	a-	-ma-	-qui-	0c	-a-	-ma-	qui-	0G	-a-	-ma-	qui-
!LO:TX:t=P:problem:kreska pseudotaktowa	!	!	!	!	!LO:TX:a:t=P:problem:oddech jako rozdzielacz słów	!	!	!	!	!	!	!
1C	.	-ris	-na	-bus	1c,>	-ris,	-na	-bus	1G	-ris	-na	-bus
=29-	=29-	=29-	=29-	=29-	=29-	=29-	=29-	=29-	=29-	=29-	=29-	=29-
0F	.	et	Sit	Vir-	0c	et	Sit	Vir-	0A	et	Sit	Vir-
1F	.	a	in	-go	1c	à	in	-go	1c	a	in	-go
=30-	=30-	=30-	=30-	=30-	=30-	=30-	=30-	=30-	=30-	=30-	=30-	=30-
2BB-/	.	mun-	tu-	Ma-	0d	mun-	tu-	Ma-	0B-	mun-	tu-	Ma-
2C/	.	.	.	.	.	.	.	.	.	.	.	.
2D\	.	.	.	.	.	.	.	.	.	.	.	.
2E\	.	.	.	.	.	.	.	.	.	.	.	.
!LO:TX:t=P:problem:kreska pseudotaktowa	!	!	!	!	!	!	!	!	!	!	!	!
1F	.	-di	-o	-ter	1c	-di	-o	-ter	1A	-di	-o	-ter
=31-	=31-	=31-	=31-	=31-	=31-	=31-	=31-	=31-	=31-	=31-	=31-	=31-
0C	.	frau-	no-	te	0c	frau-	no-	te	0G	frau-	no-	te
1C	.	-di-	-mi-	o-	1c	-di-	-mi-	o-	1G	-di-	-mi-	o-
=32-	=32-	=32-	=32-	=32-	=32-	=32-	=32-	=32-	=32-	=32-	=32-	=32-
0.FF;	.	-bus.	-ne	-rat.	0.c;;	-bus	-ne	-rat.	0.A;;	-bus.	-ne	-rat.
==	==	==	==	==	==	==	==	==	==	==	==	==
*-	*-	*-	*-	*-	*-	*-	*-	*-	*-	*-	*-	*-
!!!system-decoration: [s1,s2,s3]
!!!RDF**kern: < = below
!!!RDF**kern: l = terminal long
!!!ENC: Marta Lawrence
!!!END: 2021-03-21
!!!ENC: Berenika Jozajtis
!!!END: 2021-03-08
